icons/laravel.svg

<svg width="24" height="24" viewBox="0 0 24 24" fill="none" xmlns="http://www.w3.org/2000/svg">
<g clip-path="url(#clip0)">
<path d="M23.642 5.43C23.6513 5.46252 23.656 5.49617 23.656 5.53V10.679C23.656 10.814 23.583 10.939 23.467 11.005L19.144 13.495V18.429C19.1439 18.495 19.1264 18.5599 19.0935 18.6171C19.0605 18.6742 19.0131 18.7218 18.956 18.755L9.93 23.949C9.90909 23.9605 9.88695 23.9695 9.864 23.976C9.856 23.978 9.848 23.984 9.84 23.986C9.77727 24.004 9.71074 24.004 9.648 23.986C9.637 23.984 9.628 23.978 9.618 23.974C9.598 23.966 9.576 23.96 9.556 23.949L0.533002 18.755C0.475601 18.7221 0.4279 18.6746 0.394715 18.6174C0.36153 18.5601 0.344037 18.4952 0.344002 18.429V2.974C0.344002 2.941 0.349002 2.908 0.358002 2.876C0.361002 2.864 0.368002 2.856 0.372002 2.844C0.378017 2.82405 0.385711 2.80465 0.395002 2.786C0.399002 2.773 0.410002 2.764 0.418002 2.753L0.451002 2.708C0.463002 2.698 0.476002 2.69 0.488002 2.681C0.502002 2.669 0.515002 2.657 0.529002 2.647H0.530002L5.043 0.0499963C5.10001 0.0170832 5.16468 -0.000244141 5.2305 -0.000244141C5.29633 -0.000244141 5.36099 0.0170832 5.418 0.0499963L9.93 2.647H9.932C9.947 2.657 9.959 2.668 9.972 2.68L10.01 2.707C10.023 2.721 10.03 2.737 10.043 2.752C10.051 2.763 10.063 2.773 10.068 2.785C10.078 2.805 10.085 2.823 10.092 2.843C10.095 2.854 10.102 2.864 10.105 2.875C10.115 2.906 10.119 2.939 10.119 2.973V12.625L13.879 10.461V5.527C13.879 5.494 13.883 5.461 13.892 5.429C13.895 5.419 13.902 5.409 13.905 5.397C13.9117 5.37683 13.9197 5.35712 13.929 5.338C13.936 5.326 13.947 5.318 13.954 5.305C13.966 5.29 13.975 5.275 13.987 5.262C13.999 5.25 14.012 5.242 14.024 5.234C14.038 5.224 14.05 5.211 14.065 5.202H14.066L18.579 2.604C18.636 2.57108 18.7007 2.55376 18.7665 2.55376C18.8323 2.55376 18.897 2.57108 18.954 2.604L23.467 5.202C23.483 5.212 23.494 5.223 23.509 5.233C23.521 5.243 23.534 5.251 23.545 5.261C23.558 5.275 23.567 5.291 23.579 5.305C23.587 5.317 23.598 5.326 23.603 5.338C23.614 5.358 23.621 5.378 23.627 5.398C23.633 5.408 23.639 5.419 23.642 5.43V5.43ZM22.902 10.462V6.179L21.324 7.087L19.142 8.343V12.626L22.902 10.462ZM18.392 18.212V13.925L16.245 15.15L10.119 18.648V22.973L18.392 18.212ZM1.093 3.624V18.212L9.366 22.973V18.648L5.044 16.203L5.042 16.2H5.04C5.026 16.19 5.015 16.179 5 16.169C4.989 16.159 4.976 16.151 4.965 16.142L4.964 16.14C4.951 16.128 4.943 16.115 4.933 16.1C4.923 16.089 4.912 16.078 4.905 16.064H4.903C4.895 16.05 4.89 16.033 4.883 16.017C4.877 16.001 4.869 15.99 4.865 15.974C4.86122 15.9552 4.85855 15.9361 4.857 15.917C4.855 15.903 4.851 15.89 4.851 15.876V5.789L2.671 4.532L1.093 3.624ZM5.23 0.809996L1.47 2.974L5.23 5.138L8.988 2.974L5.23 0.809996ZM7.186 14.315L9.368 13.059V3.624L7.788 4.534L5.606 5.789V15.224L7.186 14.315ZM18.767 3.365L15.007 5.528L18.767 7.691L22.526 5.527L18.767 3.365ZM18.391 8.343L16.21 7.087L14.63 6.18V10.463L16.812 11.719L18.392 12.627L18.391 8.343ZM9.741 17.997L15.255 14.849L18.011 13.277L14.254 11.114L9.931 13.603L5.99 15.873L9.741 17.997Z" fill="#FF2D20"/>
</g>
<defs>
<clipPath id="clip0">
<rect width="24" height="24" fill="white"/>
</clipPath>
</defs>
</svg>

<svg role="img" xmlns="http://www.w3.org/2000/svg" viewBox="0 0 24 24"><title>Laravel icon</title><path d="M23.642 5.43a.364.364 0 01.014.1v5.149c0 .135-.073.26-.189.326l-4.323 2.49v4.934a.378.378 0 01-.188.326L9.93 23.949a.316.316 0 01-.066.027c-.008.002-.016.008-.024.01a.348.348 0 01-.192 0c-.011-.002-.02-.008-.03-.012-.02-.008-.042-.014-.062-.025L.533 18.755a.376.376 0 01-.189-.326V2.974c0-.033.005-.066.014-.098.003-.012.01-.02.014-.032a.369.369 0 01.023-.058c.004-.013.015-.022.023-.033l.033-.045c.012-.01.025-.018.037-.027.014-.012.027-.024.041-.034H.53L5.043.05a.375.375 0 01.375 0L9.93 2.647h.002c.015.01.027.021.04.033l.038.027c.013.014.02.03.033.045.008.011.02.021.025.033.01.02.017.038.024.058.003.011.01.021.013.032.01.031.014.064.014.098v9.652l3.76-2.164V5.527c0-.033.004-.066.013-.098.003-.01.01-.02.013-.032a.487.487 0 01.024-.059c.007-.012.018-.02.025-.033.012-.015.021-.03.033-.043.012-.012.025-.02.037-.028.014-.01.026-.023.041-.032h.001l4.513-2.598a.375.375 0 01.375 0l4.513 2.598c.016.01.027.021.042.031.012.01.025.018.036.028.013.014.022.03.034.044.008.012.019.021.024.033.011.02.018.04.024.06.006.01.012.021.015.032zm-.74 5.032V6.179l-1.578.908-2.182 1.256v4.283zm-4.51 7.75v-4.287l-2.147 1.225-6.126 3.498v4.325zM1.093 3.624v14.588l8.273 4.761v-4.325l-4.322-2.445-.002-.003H5.04c-.014-.01-.025-.021-.04-.031-.011-.01-.024-.018-.035-.027l-.001-.002c-.013-.012-.021-.025-.031-.04-.01-.011-.021-.022-.028-.036h-.002c-.008-.014-.013-.031-.02-.047-.006-.016-.014-.027-.018-.043a.49.49 0 01-.008-.057c-.002-.014-.006-.027-.006-.041V5.789l-2.18-1.257zM5.23.81L1.47 2.974l3.76 2.164 3.758-2.164zm1.956 13.505l2.182-1.256V3.624l-1.58.91-2.182 1.255v9.435zm11.581-10.95l-3.76 2.163 3.76 2.163 3.759-2.164zm-.376 4.978L16.21 7.087 14.63 6.18v4.283l2.182 1.256 1.58.908zm-8.65 9.654l5.514-3.148 2.756-1.572-3.757-2.163-4.323 2.489-3.941 2.27z"/></svg>
